X: 5864
T: Callows, The
R: jig
M: 6/8
K: Ddorian
|:A/G/|F2D DFD|A,2D DEF|E2C CB,C|GEC CDE|
A,2D DFD|A,2D D2c|AGF EDC|A,2D D2:|
|:E|F2A AGA|F2A AGF|E2C CB,C|EDE CDE|
[1 F2A AGA|FGA cdc|AGF EDC|A,2D D2:|
[2 FEF GFG|ABc dcB|AGF EDC|A,2D D3||

